src/r/2010-218f_supp/2021_daggers.svg

<?xml version="1.0" encoding="UTF-8" standalone="no"?>
<!-- Created with Inkscape (http://www.inkscape.org/) -->

<svg
   xmlns:dc="http://purl.org/dc/elements/1.1/"
   xmlns:cc="http://creativecommons.org/ns#"
   xmlns:rdf="http://www.w3.org/1999/02/22-rdf-syntax-ns#"
   xmlns:svg="http://www.w3.org/2000/svg"
   xmlns="http://www.w3.org/2000/svg"
   version="1.1"
   width="1024"
   height="2048"
   id="svg3355">
  <defs
     id="defs3357" />
  <metadata
     id="metadata3360">
    <rdf:RDF>
      <cc:Work
         rdf:about="">
        <dc:format>image/svg+xml</dc:format>
        <dc:type
           rdf:resource="http://purl.org/dc/dcmitype/StillImage" />
        <dc:title></dc:title>
      </cc:Work>
    </rdf:RDF>
  </metadata>
  <g
     transform="matrix(-0.85882353,0,0,-1,978.53437,808.70946)"
     id="layer1-4" />
  <path
     d="M 433,255.99999 433,512 l 0,99 -305,0 0,157 305,0 0,512 -305,0 0,157 305,0 0,99 0,256 158,0 0,-256 0,-99 305,0 0,-157 -305,0 0,-512 305,0 0,-157 -305,0 0,-99 0,-256.00001 -158,0 z"
     id="path5114-5-3-7-8-1-2-6-7-4-0-0"
     style="fill:#000000;fill-opacity:1;stroke:none;display:inline" />
</svg>

<?xml version="1.0" encoding="UTF-8" standalone="no"?>
<svg
   xmlns:dc="http://purl.org/dc/elements/1.1/"
   xmlns:cc="http://creativecommons.org/ns#"
   xmlns:rdf="http://www.w3.org/1999/02/22-rdf-syntax-ns#"
   xmlns:svg="http://www.w3.org/2000/svg"
   xmlns="http://www.w3.org/2000/svg"
   id="svg3355"
   height="2048"
   width="1024"
   version="1.1">
  <defs
     id="defs3357" />
  <metadata
     id="metadata3360">
    <rdf:RDF>
      <cc:Work
         rdf:about="">
        <dc:format>image/svg+xml</dc:format>
        <dc:type
           rdf:resource="http://purl.org/dc/dcmitype/StillImage" />
        <dc:title></dc:title>
      </cc:Work>
    </rdf:RDF>
  </metadata>
  <g
     id="layer1-4"
     transform="matrix(-0.85882353,0,0,-1,978.53437,808.70946)" />
  <path
     style="display:inline;fill:#000000;fill-opacity:1;stroke:none"
     id="path5114-5-3-7-8-1-2-6-7-4-0-0"
     d="M 433,255.99999 V 611 H 128 v 157 h 305 v 512 H 128 v 157 h 305 v 355 H 591 V 1437 H 896 V 1280 H 591 V 768 H 896 V 611 H 591 V 255.99999 Z" />
</svg>
